**kern	**kern	**kern	**kern	**harm
*staff4	*staff3	*staff2	*staff1	*staff1
=1-	=1-	=1-	=1-	=1-
*clefF4	*clefF4	*clefG2	*clefG2	*
*k[f#c#g#d#]	*k[f#c#g#d#]	*k[f#c#g#d#]	*k[f#c#g#d#]	*
*M4/4	*M4/4	*M4/4	*M4/4	*
*	*	*	*MM101	*
*E:	*E:	*E:	*E:	*E:
1r	1r	1r	2r	.
.	.	.	4r	.
.	.	.	8r	.
.	.	.	8r	.
=2	=2	=2	=2	=2
4EE/	4E\	4B/	8g#/L	I
.	.	.	8b/	.
4BB/	4A\	4d#/	8a/	V7
.	.	.	8f#/J	.
4E\	4G#\	4e/	4e/	I
4r	4r	4r	8r	.
.	.	.	8g#/	.
=3	=3	=3	=3	=3
4C#/	4E\	4e/	8a/L	IV6
.	.	.	8b/	.
4AA/	4A\	4c#/	8cc#/	IV
.	.	.	8e/J	.
4BB/	4F#\	4B/	4d#/	V
4r	4r	4r	8r	.
.	.	.	8B/	.
=4	=4	=4	=4	=4
!!linebreak:original
4D#\	4F#\	4B/	8f#/L	V65
.	.	.	8a/	.
4E\	4G#\	4B/	8g#/	I
.	.	.	8e/J	.
4AA/	4A\	4e/	8cc#\	IV
.	.	.	4cc#\	.
4A\	4c#\	4e/	.	.
.	.	.	16dd#\LL	.
.	.	.	16ee\JJ	.
=5	=5	=5	=5	=5
4G#\	4G#\	4e/	8b\L	I6
.	.	.	16dd#\L	.
.	.	.	16ee\JJ	.
4G#\	4G#\	4e/	8b\L	.
.	.	.	16dd#\L	.
.	.	.	16ee\JJ	.
2G#\	2B\	[2e/	8b\L	.
.	.	.	8b\J	.
.	.	.	8b/L	.
.	.	.	16a/L	.
.	.	.	16g#/JJ	.
=6	=6	=6	=6	=6
4A\	4c#\	1e_	8f#/	ii65
.	.	.	4f#/	.
4B\	4B\	.	.	.
.	.	.	8f#/	.
4.c#\	4.A\	.	8.f#/L	ii43
.	.	.	16g#/Jk	.
.	.	.	8a/L	.
8B\	8B\	.	8g#/J	.
=7	=7	=7	=7	=7
!!linebreak:original
4A#\	4c#\	4e/]	8f#/L	V65/V
.	.	.	[8f#/J	.
4B\	4B\	4d#/	8f#/L]	V7
.	.	.	16a/L	.
.	.	.	16g#/JJ	.
4E\	4E\	4e/	4e/	I
4r	4r	4r	8r	.
.	.	.	8e/	.
=8	=8	=8	=8	=8
4EE/	4E\	4B/	8g#/L	I
.	.	.	8b/	.
4BB/	4A\	4d#/	8a/	V7
.	.	.	8f#/J	.
4E\	4G#\	4e/	4e/	I
4r	4r	4r	8r	.
.	.	.	8e/	.
=9	=9	=9	=9	=9
2r	2r	2r	8g#\L	vi
.	.	.	8cc#\	.
.	.	.	8ee\	.
.	.	.	8gg#\J	.
[2G#\	2d#\	[2f#/	4cc#\	V7/vi
.	.	.	8b#\L	.
.	.	.	8ff#\J	.
=10	=10	=10	=10	=10
2G#\]	4.B#\	4.f#/]	8dd#/L	.
.	.	.	8b#/	.
.	.	.	8g#/	.
.	8G#\	8d#/	8f#/J	.
2C#/	2G#\	4d#/	4f#/	vi
.	.	4c#'/	8e/L	.
.	.	.	8g#/J	.
=11	=11	=11	=11	=11
!!pagebreak:original
2r	2r	2r	8b#\L	.
.	.	.	8cc#\	.
.	.	.	8ee\	.
.	.	.	8gg#\J	.
[2F#\	4.c#\	[2e/	4bn\	V7/V
.	.	.	8a#\L	.
.	8F#\	.	8ee\J	.
=12	=12	=12	=12	=12
1F#_	8A#/L	4.e/]	8cc#/L	V7/V
*	*clefG2	*	*	*
.	8c#/	.	8a#/	.
.	8e/	.	8f#/	.
.	8c#/J	8e/	8a#/J	.
.	4c#/	4e/	4a#/	.
.	8d#/L	4d#/	8b\L	V64
*	*clefF4	*	*	*
.	8F#/J	.	8ff#\J	.
=13	=13	=13	=13	=13
1F#_	8B\L	4.f#/	8dd#/L	V64
*	*clefG2	*	*	*
.	8d#\	.	8b/	.
.	8f#\	.	8f#/	.
.	8d#\J	8f#/	8b#/J	.
.	4d#/	4f#/	4b#\	.
.	8e/L	4e/	8cc#\L	.
*	*clefF4	*	*	*
.	8F#/J	.	8gg#\J	.
=14	=14	=14	=14	=14
!!linebreak:original
4.F#\]	8A#\L	2e/	8ee/L	V7/V
.	8c#\	.	8cc#/	.
.	8e\	.	8a#/	.
8E\	8E\J	.	8e/J	V2/V
4D#\	8D#\	8d#/	8d#/L	V6
*	*clefG2	*	*	*
.	4f#/	4b\	[8b/	.
4D#\	.	.	8b/]	V65
.	[8f#/	[8a/	[8b/J	.
=15	=15	=15	=15	=15
4E\	8f#/]	8a/]	8b\L]	I
.	4e/	4g#/	[8b\	.
4F#\	.	.	8b\]	V64
.	[8d#/	[8f#/	[8b\J	.
4G#\	8d#/]	8f#/]	8b\L]	I6
.	4B/	4e/	[8b\	.
4F#\	.	.	8b\]	V64
.	8B/	8d#/	8b\J	.
=16	=16	=16	=16	=16
!!linebreak:original
8F##\L	8d#/L	8c#/L	8b/L	V65/V/vi
8F##\	8d#/	8c#/	8a#/	.
8F##\	8d#/	8c#/	8a#/	.
8F##\J	8d#/J	8c#/J	8a#/J	.
8F##\L	8d#/L	8c#/L	4.a#/	.
8F##\	8d#/	8c#/	.	.
8F##\	8d#/	8c#/	.	.
8F##\J	8d#/J	8c#/J	16b#\LL	.
.	.	.	16cc#\JJ	.
=17	=17	=17	=17	=17
*	*clefF4	*	*	*
8F#\L	8G#\L	8d#/L	8cc#\L	V2/vi
8F#\	8G#\	8d#/	8b#\	.
8F#\	8G#\	8d#/	8b#\	.
8F#\J	8G#\J	8d#/J	8b#\J	.
8F#\L	8G#\L	8d#/L	4.b#\	.
8F#\	8G#\	8d#/	.	.
8F#\	8G#\	8d#/	.	.
8F#\J	8G#\J	8d#/J	16cc#\LL	.
.	.	.	16dd#\JJ	.
=18	=18	=18	=18	=18
!!pagebreak:original
*	*	*clefF4	*	*
2E\	8G#\L	8G#\L	8dd#\L	vi6
.	8G#\	8G#\	8cc#\	.
.	8G#\	8G#\	8cc#\	.
.	8G#\J	8G#\J	8cc#\J	.
4.E\	8G#\L	4G#\	8cc#\L	.
.	8G#\	.	8gg#\J	.
*	*	*clefG2	*	*
.	8G#\	[4c#/	16ff#\LL	.
.	.	.	16ee\	.
*B:	*B:	*B:	*B:	*B:
8E#\	8G#\J	.	16dd#\	V6/V
.	.	.	16cc#\JJ	.
=19	=19	=19	=19	=19
8F#\L	8F#\L	8c#/L]	4b\	V
8F#\J	8F#\J	8c#/J	.	.
4F#'\	4F#'\	4c#'/	16a#/LL	.
.	.	.	16f#/J	.
.	.	.	8f#/J	.
8r	8r	8r	[4cc#\	.
*	*clefG2	*	*	*
8F#\	8f#/	8A#/	.	.
4F#'\	4f#'/	4A#'/	16cc#/LL]	.
.	.	.	16f#/J	.
.	.	.	8f#/J	.
=20	=20	=20	=20	=20
!!linebreak:original
8r	8r	8r	16ee\LL	.
.	.	.	16cc#\J	.
8F#\	8c#/	8a#/	8cc#\J	V7
8r	8r	8r	16aa#\LL	.
.	.	.	16ff#\J	.
8F#\	8c#/	8a#/	8ff#\J	.
8r	8r	8r	16ccc#\LL	.
.	.	.	16aa#\J	.
8F#\	8c#/	8a#/	8aa#\J	.
8r	8r	8r	[4eee\	.
8F#\	8c#/	8a#/	.	.
=21	=21	=21	=21	=21
4F#\	4c#/	4a#/	8eee\L]	V7
.	.	.	8ddd#\	.
4r	4r	4r	8ccc#\	.
.	.	.	8bb\J	.
2r	4r	2r	8aa#\L	.
.	.	.	8gg#\	.
.	8r	.	8ff#\	.
.	8g#/	.	8ee\J	.
=22	=22	=22	=22	=22
2r	8f#/L	8r	8dd#\L	V7
.	8e/	8g#/L	8cc#\	.
.	8d#/	8f#/	8b\	.
.	8c#/J	8e/J	8a#\J	.
*	*clefF4	*	*	*
4r	8B\L	8d#/L	8g#/L	.
.	8A#\J	8c#/J	8f#/J	.
8r	[4B\	[4dn/	4e#/	Gr
8F##\	.	.	.	.
=23	=23	=23	=23	=23
!!linebreak:original
4.F#\	8B\L]	8d/L]	[8f#/	C64
.	8A#\	8c#/	4f#/]	V
.	8c#\	8e/	.	.
8F##\	[8B\J	[8dn/J	8e#/	Gr
4.F#\	8B\L]	8d/L]	[8f#/	C64
.	8A#\	8c#/	4f#/]	V
.	8c#\	8e/	.	.
8F##\	[8B\J	[8d/J	8e#/	Gr
=24	=24	=24	=24	=24
[1F#	8B\L]	8d/L]	[8f#/	C64
.	8A#\	8c#/	4.f#/_	V
.	8B\	8d#/	.	.
.	8c#\J	8e/J	.	.
.	[2F#\	8f#/L	8f#/L]	C64
.	.	8B/	8d#/	.
.	.	8c#/	8e/	.
.	.	8d#/J	8f#/J	.
=25	=25	=25	=25	=25
2F#\]	2F#\]	8e/L	8g#/L	V
.	.	8c#/	8a#/	.
.	.	8d#/	8b/	.
*	*	*clefF4	*	*
.	.	8A#/J	8cc#/J	.
4.F#\	4.F#\	8B\L	8dd#\L	C64
.	.	8A#\	8cc#\	.
.	.	8B\	8dd#\	.
8E\	8A#\	8c#\J	8ee\J	V2
=26	=26	=26	=26	=26
!!pagebreak:original
4D#\	4F#\	4B\	16ee#\LL	I6
.	.	.	16ff#\	.
.	.	.	16dd#\	.
.	.	.	16b\JJ	.
8r	8r	8r	16a#\LL	V
.	.	.	16f#\	.
*	*	*clefG2	*	*
8F#\	8A#\	8c#/	16een\	.
.	.	.	16cc#\JJ	.
4D#\	4B\	4B/	16ee#\LL	I6
.	.	.	16ff#\	.
.	.	.	16dd#\	.
.	.	.	16b\JJ	.
8r	8r	8r	16a#\LL	V7
.	.	.	16f#\	.
8F#\	8A#\	8c#/	16een\	.
.	.	.	16cc#\JJ	.
=27	=27	=27	=27	=27
!!linebreak:original
4D#'\	4B'\	4B'/	16ee#\LL	I6
.	.	.	16ff#\	.
.	.	.	16dd#\	.
.	.	.	16b\JJ	.
4D#'\	4B'\	4f#'/	16aa#\LL	V65/IV
.	.	.	16bb\	.
.	.	.	16b\	.
.	.	.	16aan\JJ	.
*	*clefG2	*	*	*
4E'\	4e'/	4B'/	16ff##\LL	IV
.	.	.	16gg#\	.
.	.	.	16e\	.
.	.	.	16een\JJ	.
8E\L	8e/L	8b/L	16gg#\LL	.
.	.	.	16ee\	.
8E\J	8c#/J	8f#/J	16ccc#\	.
.	.	.	16aa#\JJ	.
=28	=28	=28	=28	=28
8D#/L	8d#/L	2f#/	8bb\L	I6
8AA#/	8A#/	.	8ccc#\	.
8BB/	8B/	.	8ddd#\	.
8C#/J	8c#/J	.	8eee\J	.
4D#\	8d#/L	4B/	8fff#\L	.
.	8b/	.	8ggg#\	.
8D#\L	8b/	8ff#\L	8aaan\	V65/IV
8D#\J	8b/J	8ff#\J	8aaa\J	.
=29	=29	=29	=29	=29
!!linebreak:original
2.D#\	2.b\	2.ff#\	2.aaa\	V65/IV
4r	4r	4r	4r	.
=30	=30	=30	=30	=30
1r	1r	8.ee\L	8.gg#\L	IV
.	.	16dd#\Jk	16ff##\Jk	.
.	.	16ee\LL	16gg#\LL	.
.	.	16dd#\	16ff##\	.
.	.	16ee\	16gg#\	.
.	.	16dd#\JJ	16ff##\JJ	.
.	.	8ee\L	8gg#\L	.
.	.	8ee\	8gg#\	.
.	.	8dd#\	8ff#\	.
.	.	8cc#\J	8ee\J	.
=31	=31	=31	=31	=31
8F#\L	8f#/L	16b\LK	16dd#\LK	C64
.	.	8.dd#\J	8.ff#\J	.
8F#\	8f#/	.	.	.
8F#\	8f#/	8dd#\L	8ff#\L	.
8F#\J	8f#/J	8b\J	32ee\LL	.
.	.	.	32dd#\	.
.	.	.	32cc#\	.
.	.	.	32b\JJJ	.
8F#\L	8f#/L	8b/L	2cc#\	V
8F#\	8f#/	8b/	.	.
8F#\	8e/	8a#/	.	.
8F#\J	8e/J	8a#/J	.	.
=32	=32	=32	=32	=32
!!pagebreak:original
*	*	*clefF4	*	*
4D#\	4d#/	4B\	24ff#\LL	I6
.	.	.	24gg#\	.
.	.	.	24ff#\	.
.	.	.	24dd#\	.
.	.	.	24cc#\	.
.	.	.	24b\JJ	.
8r	8r	8r	24a#\LL	.
.	.	.	24g#\	.
.	.	.	24f#\	.
*	*clefF4	*	*	*
8F#\	8A#\	8c#\	24ee\	V7
.	.	.	24dd#\	.
.	.	.	24cc#\JJ	.
4D#\	4B\	4B\	24ff#\LL	I6
.	.	.	24gg#\	.
.	.	.	24ff#\	.
.	.	.	24dd#\	.
.	.	.	24cc#\	.
.	.	.	24b\JJ	.
8r	8r	8r	24a#\LL	.
.	.	.	24g#\	.
.	.	.	24f#\	.
8F#\	8A#\	8c#\	24ee\	V7
.	.	.	24dd#\	.
.	.	.	24cc#\JJ	.
=33	=33	=33	=33	=33
!!linebreak:original
4D#'\	4B'\	4B'\	24ff#\LL	I6
.	.	.	24gg#\	.
.	.	.	24ff#\	.
.	.	.	24dd#\	.
.	.	.	24cc#\	.
.	.	.	24b\JJ	.
*	*	*clefG2	*	*
4D#'\	4B'\	4f#'/	24bb\LL	.
.	.	.	24aa#\	.
.	.	.	24bb\	.
.	.	.	24ff#\	V65/IV
.	.	.	24gg#\	.
.	.	.	24aan\JJ	.
4E'\	4B'\	4g#'/	24gg#\LL	IV
.	.	.	24ff#\	.
.	.	.	24gg#\	.
.	.	.	24g#\	.
.	.	.	24f#\	.
.	.	.	24e\JJ	.
*	*clefG2	*	*	*
8E\L	8e/L	8b/L	24gg#\LL	.
.	.	.	24ff#\	.
.	.	.	24ee\	.
8E\J	8c#/J	8f#/J	24eee\	V42
.	.	.	24ccc#\	.
.	.	.	24aa#\JJ	.
=34	=34	=34	=34	=34
!!linebreak:original
8D#/L	8d#/L	2f#/	24bb\LL	I6
.	.	.	24bb\	.
.	.	.	24bb\	.
8AA#/	8e/	.	24ccc#\	V65
.	.	.	24ccc#\	.
.	.	.	24ccc#\JJ	.
8BB/	8d#/	.	24ddd#\LL	I
.	.	.	24ddd#\	.
.	.	.	24ddd#\	.
8C#/J	8c#/J	.	24eee\	V64
.	.	.	24eee\	.
.	.	.	24eee\JJ	.
4D#\	8B/L	4B/	24fff#\LL	I6
.	.	.	24fff#\	.
.	.	.	24fff#\	.
.	8b/	.	24ggg#\	.
.	.	.	24ggg#\	.
.	.	.	24ggg#\JJ	.
8D#\L	8ccn/	8ff#\L	24aaan\LL	viio7/IV
.	.	.	24aaa\	.
.	.	.	24aaa\	.
8D#\J	8cc/J	8ff#\J	24aaa\	.
.	.	.	24aaa\	.
.	.	.	24aaa\JJ	.
=35	=35	=35	=35	=35
!!pagebreak:original
2.D#\	2.ccn\	2.ff#\	2.aaa\	viio7/IV
4r	4r	4r	4r	.
=36	=36	=36	=36	=36
1r	1r	8.ee\L	8.gg#\L	IV
.	.	16dd#\Jk	16ff##\Jk	.
.	.	16ee\LL	16gg#\LL	.
.	.	16dd#\	16ff##\	.
.	.	16ee\	16gg#\	.
.	.	16dd#\JJ	16ff##\JJ	.
.	.	8ee\L	8gg#\L	.
.	.	8ee\	8gg#\	.
.	.	8dd#\	8ff#\	.
.	.	8cc#\J	8ee\J	.
=37	=37	=37	=37	=37
8F#\L	2f#/	2b\	2dd#\	C64
8F#\	.	.	.	.
8F#\	.	.	.	.
8F#\J	.	.	.	.
8F##\L	2e/	2a#/	2cc#\	V7
8F##\	.	.	.	.
8F##\	.	.	.	.
8F##\J	.	.	.	.
=38	=38	=38	=38	=38
2G#\	4d#/	8f#/L	2b#\	V7/V/V
.	.	8g#/	.	.
.	2g#/	8a/	.	.
.	.	8f#/J	.	.
2C#/	.	2e#/	8bn\L	V/V
.	.	.	8cc#\	.
.	[4c#/	.	8dd#\	.
.	.	.	8b\J	.
=39	=39	=39	=39	=39
!!linebreak:original
2F#\	4c#/]	8e/L	2a#/	V7
.	.	8f#/	.	.
.	2f#/	8g#/	.	.
.	.	8e/J	.	.
2BB/	.	2d#/	8an\L	V7/IV
.	.	.	8b\	.
.	4f#/	.	8cc#\	.
.	.	.	8a\J	.
=40	=40	=40	=40	=40
8E/L	8e/L	8e\L	[4g#/	IV
8EE/J	8e/J	8gg#\J	.	.
4EE/	4e/	4gg#\	32g#\LLL]	.
.	.	.	32a\	.
.	.	.	32b\	.
.	.	.	32cc#\	.
.	.	.	32dd#\	.
.	.	.	32ee\	.
.	.	.	32ff#\	.
.	.	.	64gg#\L	.
.	.	.	64aa#\JJJJ	.
2r	2r	2r	4bb\	.
.	.	.	16aa#\LL	.
.	.	.	16gg#\	.
.	.	.	16ff#\	.
.	.	.	16ee\JJ	.
=41	=41	=41	=41	=41
!!linebreak:original
8F#\L	8f#/L	16b\LK	16dd#\LK	C64
.	.	8.dd#\J	8.ff#\J	.
8F#\	8f#/	.	.	.
8F#\	8f#/	8dd#\L	8ff#\L	.
8F#\J	8f#/J	8b\J	32ee\LL	.
.	.	.	32dd#\	.
.	.	.	32cc#\	.
.	.	.	32b\JJJ	.
8F#\L	8f#/L	8b/L	2cc#\	V7
8F#\	8f#/	8b/	.	.
8F#\	8f#/	8a#/	.	.
8F#\J	8A#/J	8e/J	.	.
=42	=42	=42	=42	=42
[1BB	8B/L	8d#/L	4.b\	I
.	8c#/	8e/	.	.
.	8d#/	8f#/	.	.
.	8f#/J	8a/J	8dd#\	.
.	4.e/	4.g#/	8ee\L	IV64
.	.	.	8ff#\	.
.	.	.	8gg#\	.
.	8c#/	8e/	8a#\J	viio6
=43	=43	=43	=43	=43
1BB_	8B/L	8d#/L	4.b\	I
.	8c#/	8e/	.	.
.	8d#/	8f#/	.	.
.	8f#/J	8a/J	8d#/	.
.	4.e/	4.g#/	8e\L	IV64
.	.	.	8f#\	.
.	.	.	8g#\	.
*	*	*	*clefF4	*
.	8c#/	8e/	8A#\J	viio6
=44	=44	=44	=44	=44
!!pagebreak:original
2.BB/]	2c#/	2e/	2A#\	I
.	4B/	4d#/	4B\	.
4r	4r	4r	4r	.
=45	=45	=45	=45	=45
*-	*-	*-	*-	*-
